X:94
T:Blazing Star. ThoH.094, The
Q:1/2=80
M:C|
L:1/8
B:Thompson's Compleat Collection of 120 Favourite Hornpipes.
Z:Village Music Project, Simon Wilson 2016
O:England.
K:F
c2f4a2|g2f2e4|f2edc2d2|d2cBA2F2|c2f4a2|g2f2e2f2|g2fed2c2|G2=B2c4:|
|:G2B4d2| d2cBA2f2|f2ed^c2d2|A2^c2d4|g4g2fe|defge2c2|
f4f2_ed|cd_ecd2B2|b2a4g2-|g2f4e2|efg2c2f2|Tf3ef4:|

